icons/unity-panel/22x22/panel/network-transmit-receive.svg

<svg version="1.0" viewBox="0 0 13 22" xmlns="http://www.w3.org/2000/svg">
 <path d="m11.847 8.8124h-2.1494v2.0254h-0.6754v-2.7002h1.5515c-0.27744-0.41456-1.3746-2.04-2.7289-3.9569-1.2803 1.828-2.2457 3.3709-2.603 3.9569h1.418v2.3624h-0.6754v-1.6877h-1.9461l0.30655-0.51105s1.5231-2.5391 3.2214-4.9167l0.2749-0.38452 0.27458 0.38452c1.6921 2.3689 3.3816 4.9032 3.3816 4.9032z" color="#000000" color-rendering="auto" fill="#fff" image-rendering="auto" shape-rendering="auto" solid-color="#000000" stroke-width=".83334" style="font-feature-settings:normal;font-variant-alternates:normal;font-variant-caps:normal;font-variant-ligatures:none;font-variant-numeric:normal;font-variant-position:normal;isolation:auto;mix-blend-mode:normal;shape-padding:0;text-decoration-color:#000000;text-decoration-line:none;text-decoration-style:solid;text-indent:0;text-transform:none;white-space:normal"/>
 <path d="m8.8087 12.188-0.34973 0.52456s-1.6895 2.5343-3.3816 4.9032l-0.27458 0.38452-0.2749-0.38452c-1.6983-2.3776-3.2214-4.9167-3.2214-4.9167l-0.30655-0.51104h1.9461v-2.0254h0.6754v2.7002h-1.418c0.35732 0.58602 1.3228 2.1289 2.603 3.9569 1.3543-1.9168 2.4515-3.5423 2.7289-3.9569h-1.5515v-2.3628h0.6754v1.688z" color="#000000" color-rendering="auto" fill="#fff" image-rendering="auto" shape-rendering="auto" solid-color="#000000" stroke-width=".83334" style="font-feature-settings:normal;font-variant-alternates:normal;font-variant-caps:normal;font-variant-ligatures:none;font-variant-numeric:normal;font-variant-position:normal;isolation:auto;mix-blend-mode:normal;shape-padding:0;text-decoration-color:#000000;text-decoration-line:none;text-decoration-style:solid;text-indent:0;text-transform:none;white-space:normal"/>
</svg>

<svg version="1.0" viewBox="0 0 13 22" xmlns="http://www.w3.org/2000/svg"><path d="M11.847 8.812h-2.15v2.026h-.675v-2.7h1.552a210.43 210.43 0 0 0-2.73-3.957 79.43 79.43 0 0 0-2.602 3.957H6.66V10.5h-.676V8.812H4.038l.307-.51s1.523-2.54 3.221-4.917L7.841 3l.275.385a213.181 213.181 0 0 1 3.381 4.903z" color="#000" fill="#fff" style="font-feature-settings:normal;font-variant-alternates:normal;font-variant-caps:normal;font-variant-ligatures:none;font-variant-numeric:normal;font-variant-position:normal;isolation:auto;mix-blend-mode:normal;shape-padding:0;text-decoration-color:#000;text-decoration-line:none;text-decoration-style:solid;text-indent:0;text-transform:none;white-space:normal"/><path d="m8.809 12.188-.35.525s-1.69 2.534-3.382 4.903L4.803 18l-.275-.384a84.426 84.426 0 0 1-3.222-4.917L1 12.188h1.946v-2.025h.675v2.7H2.203a79.51 79.51 0 0 0 2.603 3.957 209.729 209.729 0 0 0 2.73-3.957H5.983V10.5h.675v1.688z" color="#000" fill="#fff" style="font-feature-settings:normal;font-variant-alternates:normal;font-variant-caps:normal;font-variant-ligatures:none;font-variant-numeric:normal;font-variant-position:normal;isolation:auto;mix-blend-mode:normal;shape-padding:0;text-decoration-color:#000;text-decoration-line:none;text-decoration-style:solid;text-indent:0;text-transform:none;white-space:normal"/></svg>
